modules/defaultemblems/img/Coa_Illustration_Cross_Malte_1.svg

<?xml version="1.0" encoding="UTF-8" standalone="no"?>
<!-- Created with Inkscape (http://www.inkscape.org/) -->
<!-- https://commons.wikimedia.org/wiki/File:Coa_Illustration_Cross_Malte_1.svg -->
<svg
   xmlns:dc="http://purl.org/dc/elements/1.1/"
   xmlns:cc="http://creativecommons.org/ns#"
   xmlns:rdf="http://www.w3.org/1999/02/22-rdf-syntax-ns#"
   xmlns:svg="http://www.w3.org/2000/svg"
   xmlns="http://www.w3.org/2000/svg"
   version="1.1"
   width="300"
   height="300"
   id="svg2">
  <metadata
     id="metadata129">
    <rdf:RDF>
      <cc:Work
         rdf:about="">
        <dc:format>image/svg+xml</dc:format>
        <dc:type
           rdf:resource="http://purl.org/dc/dcmitype/StillImage" />
        <dc:title></dc:title>
      </cc:Work>
    </rdf:RDF>
  </metadata>
  <defs
     id="defs4" />
  <path
     d="M 85.36866523911497,6.500000000000683 129.514632405424,129.5146324054247 6.5,85.26623840114257 64.06388294075688,149.9999999999996 6.5,214.7337615988586 129.514632405424,170.4853675945756 l -44.14596716630905,123.014632405424 64.73376159885793,-57.461456102783 64.631334760885,57.461456102783 L 170.587794432548,170.4853675945756 293.5,214.7337615988586 236.1409707351891,149.9999999999996 293.5,85.26623840114257 170.587794432548,129.5146324054246 214.7337615988579,6.500000000000455 150.1024268379729,63.96145610278336 85.36866523911473,6.500000000000455 z"
     id="path3107"
     style="fill:#ebebeb;stroke:#000000;stroke-width:3;stroke-linecap:round;stroke-linejoin:round;stroke-miterlimit:4;stroke-dasharray:none" />
</svg>

<?xml version="1.0" encoding="UTF-8" standalone="no"?>
<!-- Created with Inkscape (http://www.inkscape.org/) -->
<!-- https://commons.wikimedia.org/wiki/File:Coa_Illustration_Cross_Malte_1.svg -->
<svg height="300" width="300" xmlns="http://www.w3.org/2000/svg">
  <path d="m85.36866524 6.5 44.14596717 123.01463241-123.01463241-44.24839401 57.56388294 64.7337616-57.56388294 64.7337616 123.01463241-44.24839401-44.14596717 123.01463241 64.7337616-57.4614561 64.63133476 57.4614561-44.14596717-123.01463241 122.91220557 44.24839401-57.35902926-64.7337616 57.35902926-64.7337616-122.91220557 44.24839401 44.14596717-123.01463241-64.63133476 57.4614561z" fill="#ebebeb" stroke="#000" stroke-linecap="round" stroke-linejoin="round" stroke-width="3"/>
</svg>
